X:1
T:Wrestling Jacob, 88.88.88
T:Wrestling Jacob, 88.88.88
T:Samuel Sebastian Wesley, 1872
T:Public Domain Courtesy of the Cyber Hymnal™
C:Samuel Sebastian Wesley, 1872
Z:Public Domain
Z:Courtesy of the Cyber Hymnal™
%%score ( 1 2 ) ( 3 4 )
L:1/8
Q:1/4=108
M:4/4
K:G
V:1 treble 
V:2 treble 
V:3 bass 
V:4 bass 
V:1
 [DG]2 [DB]2 [Gd]2 | [FA]2 (BA) G2 [DA]2 | [DB]2 [DB]2 [DB]2 [FA]2 | G2 [Gc]2 [Dc]2 [DB]2 | %4
 [DA]2 [DB]2 [DG]2 [G,E]2 | D2 [B,G]2 [EA]2 [FB]2 | [Gc]2 [DA]2 [DB]2 [B,d]2 | %7
 [^C^c]2 [EB]2 [FB]2 [F^A]2 | !fermata![DB]2 B2 [Gd]2 [Fd]2 | [EG]2 G2 [EB]2 [Dd]2 | %10
 [DE]2 [CE]2 [CD]2 D2 | [G,G]2 [GA]2 [GB]2 [FA]2 | G2 |] %13
V:2
 x6 | x2 F2 (GE) x2 | x8 | G2 x6 | x8 | D2 x6 | x8 | x8 | x2 (DG) x4 | x2 (B,E) x4 | x6 (B,A,) | %11
 x8 | G2 |] %13
V:3
 [G,B,]2 [G,,D]2 [B,,D]2 | [D,D]2 [D,B,]2 [E,B,]2 (DC) | [G,B,]2 G,2 [D,G,]2 (DC) | %3
 [E,B,]2 [E,G,]2 [F,A,]2 G,2 | [D,F,]2 [G,,G,]2 [B,,G,]2 [C,G,]2 | %5
 [B,,G,]2 [E,B,]2 [C,A,]2 [D,F,]2 | E,2 [F,A,]2 G,2 [D,F,]2 | [E,G,]2 [G,B,]2 [F,D]2 [F,^C]2 | %8
 !fermata![B,,B,]2 [G,B,]2 [D,A,]2 [D,D]2 | [E,B,]2 [E,G,]2 [B,,F,]2 [B,,B,]2 | %10
 [C,G,]2 A,2 [F,A,]2 G,[F,A,] | B,2 [C,E]2 [D,D]2 (DC) | [G,B,]2 |] %13
V:4
 x6 | x6 F,2 | x2 G,2 D,2 x2 | x6 G,2 | x8 | x8 | E,2 G,2 x4 | x8 | x8 | x8 | x2 A,2 G, x3 | %11
 (E,D,) x3 D,2 x | x2 |] %13

